assets/azurewebapplicationfirewallpolicieswaf/original.svg

<svg height="18" viewBox="0 0 18 18" width="18" xmlns="http://www.w3.org/2000/svg" xmlns:xlink="http://www.w3.org/1999/xlink"><radialGradient id="a" cx="8.6596" cy="8.79665" gradientUnits="userSpaceOnUse" r="8.4939"><stop offset=".183" stop-color="#5ea0ef"/><stop offset="1" stop-color="#0078d4"/></radialGradient><linearGradient id="b" gradientUnits="userSpaceOnUse" x1="4.022" x2="3.991" y1="11.297" y2="7.338"><stop offset="0" stop-color="#ccc"/><stop offset=".123" stop-color="#d7d7d7"/><stop offset=".421" stop-color="#ebebeb"/><stop offset=".716" stop-color="#f8f8f8"/><stop offset="1" stop-color="#fcfcfc"/></linearGradient><path d="m13.9 15.5a8.512 8.512 0 0 1 -10.5-13.4l.1-.1a8.521 8.521 0 0 1 10.4 13.5" fill="url(#a)"/><path d="m2.1 10.5a26 26 0 0 0 -.8 2.6l.6.9.6.6a14.3 14.3 0 0 1 1.1-3.5 2.53 2.53 0 0 1 -1.5-.6m1-4.6a13.7 13.7 0 0 1 -.7-2.9 7.6 7.6 0 0 0 -1.1 1.4 10.6 10.6 0 0 0 .6 2.4 2.73 2.73 0 0 1 1.2-.9" fill="#83b9f9"/><circle cx="4" cy="8.5" fill="url(#b)" r="2.7"/><path d="m8 13.5a2.1 2.1 0 0 1 .5-1.3 9.2 9.2 0 0 1 -2.5-1.9 2.75 2.75 0 0 1 -1.5.8 19 19 0 0 0 1.5 1.4 8.2 8.2 0 0 0 2 1.2zm6.3.2a13.3 13.3 0 0 1 -2.8-.3v.1a1.66 1.66 0 0 1 -.5 1.2 13 13 0 0 0 3.4.2c.4-.4.8-.9 1.2-1.3a5.3 5.3 0 0 1 -1.3.1" fill="#83b9f9"/><circle cx="9.8" cy="13.5" fill="none" r="1.8"/><path d="m9.3 4.9a13.5 13.5 0 0 1 5.9-1.4 6.7 6.7 0 0 0 -1.5-1.4 15.3 15.3 0 0 0 -4.7 1.1 9 9 0 0 0 -1 .5 18.7 18.7 0 0 1 -2-2.9 1.9 1.9 0 0 0 -.9.3 21 21 0 0 0 2.1 3.1 9.8 9.8 0 0 0 -2.2 1.7 2.85 2.85 0 0 1 1.3 1.1 9 9 0 0 1 1.9-1.5 22.4 22.4 0 0 0 3.7 3.2 2.08 2.08 0 0 1 .6-1 28 28 0 0 1 -3.2-2.8" fill="#83b9f9"/><circle cx="13.8" cy="9.1" fill="#f2f2f2" r="1.9"/><path d="m17 10.4c-.1-.1-.2-.1-.3-.2s-.2-.1-.3-.2h-.1l-.3-.2h-.1l-.3-.2a1.46 1.46 0 0 1 -.6.9c.1.1.2.1.4.2h.1c.1.1.2.1.3.2.3.2.6.3.9.5.1-.3.2-.7.3-1" fill="#83b9f9"/><circle cx="4" cy="8.5" fill="#f2f2f2" r="2.7"/><circle cx="9.8" cy="13.5" fill="#f2f2f2" r="1.8"/><path d="m5.2 10.5h12.1c.2 0 .5.2.5.4v6.4a.536.536 0 0 1 -.5.5h-12.1a.46.46 0 0 1 -.4-.5v-6.3a.46.46 0 0 1 .4-.5" fill="#821010"/><path d="m5.3 11.3h3.6v1.6h-3.6z" fill="#e62323"/><path d="m9.5 11.3h3.6v1.6h-3.6z" fill="#ff7381"/><path d="m13.6 11.3h3.6v1.6h-3.6zm-8.3 2.1h1.5v1.6h-1.5z" fill="#e62323"/><path d="m15.7 13.4h1.5v1.6h-1.5zm-8.3 0h3.6v1.6h-3.6z" fill="#ff7381"/><path d="m11.5 13.4h3.6v1.6h-3.6zm-6.2 2.1h3.6v1.6h-3.6z" fill="#e62323"/><path d="m9.5 15.5h3.6v1.6h-3.6z" fill="#ff7381"/><path d="m13.6 15.5h3.6v1.6h-3.6z" fill="#e62323"/></svg>

<svg xmlns="http://www.w3.org/2000/svg" id="bc5816c9-c40c-4700-a3cd-6054b6abe2f7" width="18" height="18" viewBox="0 0 18 18"><defs><radialGradient id="bb8edb14-0b70-46fb-997d-f3a277915c9b" cx="15013.284" cy="4584.191" r="56.626" gradientTransform="matrix(.15 0 0 .15 -2243.333 -678.832)" gradientUnits="userSpaceOnUse"><stop offset=".183" stop-color="#5ea0ef"/><stop offset="1" stop-color="#0078d4"/></radialGradient><linearGradient id="a6f3c115-b661-478c-8384-79eca0b050eb" x1="4.022" x2="3.991" y1="171.297" y2="167.338" gradientTransform="translate(0 -160)" gradientUnits="userSpaceOnUse"><stop offset="0" stop-color="#ccc"/><stop offset=".123" stop-color="#d7d7d7"/><stop offset=".421" stop-color="#ebebeb"/><stop offset=".716" stop-color="#f8f8f8"/><stop offset="1" stop-color="#fcfcfc"/></linearGradient></defs><title>Icon-362Artboard 1</title><path id="a365ed42-c10c-4d6b-b8da-5311b6818174" fill="url(#bb8edb14-0b70-46fb-997d-f3a277915c9b)" d="M13.9 15.5A8.512 8.512 0 0 1 3.4 2.1l.1-.1a8.521 8.521 0 0 1 10.4 13.5"/><path fill="#83b9f9" d="M2.1 10.5a26 26 0 0 0-.8 2.6l.6.9.6.6a14.3 14.3 0 0 1 1.1-3.5 2.53 2.53 0 0 1-1.5-.6M3.1 5.9A13.7 13.7 0 0 1 2.4 3a7.6 7.6 0 0 0-1.1 1.4 10.6 10.6 0 0 0 .6 2.4 2.73 2.73 0 0 1 1.2-.9"/><circle cx="4" cy="8.5" r="2.7" fill="url(#a6f3c115-b661-478c-8384-79eca0b050eb)"/><path fill="#83b9f9" d="M8 13.5a2.1 2.1 0 0 1 .5-1.3A9.2 9.2 0 0 1 6 10.3a2.75 2.75 0 0 1-1.5.8A19 19 0 0 0 6 12.5a8.2 8.2 0 0 0 2 1.2ZM14.3 13.7a13.3 13.3 0 0 1-2.8-.3v.1a1.66 1.66 0 0 1-.5 1.2 13 13 0 0 0 3.4.2c.4-.4.8-.9 1.2-1.3a5.3 5.3 0 0 1-1.3.1"/><circle cx="9.8" cy="13.5" r="1.8" fill="none"/><path fill="#83b9f9" d="M9.3 4.9a13.5 13.5 0 0 1 5.9-1.4 6.7 6.7 0 0 0-1.5-1.4A15.3 15.3 0 0 0 9 3.2a9 9 0 0 0-1 .5A18.7 18.7 0 0 1 6 .8a1.9 1.9 0 0 0-.9.3 21 21 0 0 0 2.1 3.1A9.8 9.8 0 0 0 5 5.9 2.85 2.85 0 0 1 6.3 7a9 9 0 0 1 1.9-1.5 22.4 22.4 0 0 0 3.7 3.2 2.08 2.08 0 0 1 .6-1 28 28 0 0 1-3.2-2.8"/><circle cx="13.8" cy="9.1" r="1.9" fill="#f2f2f2"/><path fill="#83b9f9" d="M17 10.4c-.1-.1-.2-.1-.3-.2s-.2-.1-.3-.2h-.1l-.3-.2h-.1l-.3-.2a1.46 1.46 0 0 1-.6.9c.1.1.2.1.4.2h.1c.1.1.2.1.3.2.3.2.6.3.9.5.1-.3.2-.7.3-1"/><circle cx="4" cy="8.5" r="2.7" fill="#f2f2f2"/><circle cx="9.8" cy="13.5" r="1.8" fill="#f2f2f2"/><path fill="#821010" d="M5.2 10.5h12.1c.2 0 .5.2.5.4v6.4a.536.536 0 0 1-.5.5H5.2a.46.46 0 0 1-.4-.5V11a.46.46 0 0 1 .4-.5"/><path fill="#e62323" d="M5.3 11.3h3.6v1.6H5.3z"/><path fill="#ff7381" d="M9.5 11.3h3.6v1.6H9.5z"/><path fill="#e62323" d="M13.6 11.3h3.6v1.6h-3.6zM5.3 13.4h1.5V15H5.3z"/><path fill="#ff7381" d="M15.7 13.4h1.5V15h-1.5zM7.4 13.4H11V15H7.4z"/><path fill="#e62323" d="M11.5 13.4h3.6V15h-3.6zM5.3 15.5h3.6v1.6H5.3z"/><path fill="#ff7381" d="M9.5 15.5h3.6v1.6H9.5z"/><path fill="#e62323" d="M13.6 15.5h3.6v1.6h-3.6z"/></svg>
